X:1
T:Title
%%score 1 { 2 | 3 }
L:1/8
Q:1/4=83
M:4/4
K:G
V:1 treble nm="Grand Piano, Soprano"
V:2 treble nm="Choir Pad, Bass"
V:3 bass 
V:1
 [DG][DA] [GB]<[GB] [GB]>[GB] [GB]<[GB] | [Fc]>[FA] G2- GA B2 | %2
w: By~Fred~Heumel * * * * * * *||
 [FA][GB] [Ac]<[Ac] [Ac]>[Ac] [Ac]<[Ac] | [Bd]>[Ac] [GB]6 | %4
w: ||
 [DG][DA] [GB]<[GB] [GB]>[GB] [GB]<[GB] | [Fc]>[FA] G2- GA B2 | %6
w: ||
 [GB]G [FA]<[FA] [FA]>[FA] [GB]<[GB] | [FA]>[FA] G6 | FG [FA]<[FA] [FA]>[FA] [FA]<[FA] | %9
w: |||
 dc [GB]<[GB] [GB]>[GB] [GB]<[GB] | FG [FA]<[FA] [FA]>[FA] [FA]<[FA] | [Fd]>[Fc] [GB]6 | %12
w: |||
 GA [GB]<[GB] [GB]>[GB] [GB]<[GB] | Bd [Gd]<[Gc] [Gc]>[Gc] [Gc]<[Gc] | %14
w: ||
 [Gc]>[EA] [DG]<[DG] [DG]>[DG] [GB]<[GB] | [FA]>[DA] [DG]6- | [DG]2 z2 z4 |] %17
w: |||
V:2
 B,C D<D D>D D<D | D>C B,2- B,C D2 | DD D<D D>D D<D | D>D D6 | B,C D<D D>D D<D | D>C B,2- B,C D2 | %6
 DB, C<C D>D D<D | C>C[K:bass] B,6 | A,B, C<C[K:treble] C>C C<C | B,E D<D D>D D<D | %10
 A,B, C<C C>C C<C | A,>D D6 | B,C D<D D>D D<D | D=F F<E E>E E<E | %14
 E>C[K:bass] B,<B, B,>B, D<[K:treble]D | C>C B,6- | B,2 z2 z4 |] %17
V:3
 G,G, G,<G, G,>G, G,<G, | D,>D, G,6 | D,D, D,<D, D,>D, D,<D, | D,>D, G,6 | G,G, G,<G, G,>G, G,<G, | %5
 D,>D, G,6 | G,G, D,<D, D,>D, D,<D, | D,>D, G,6 | z2 D,<D, D,>D, D,<D, | z2 G,<G, G,>G, G,<G, | %10
 z2 D,<D, D,>D, D,<D, | D,>D, G,6 | z2 G,<G, G,>G, G,<G, | z2 C,<C, C,>C, C,<C, | %14
 C,>C, D,<D, D,>D, D,<D, | D,>D, G,6- | G,2 z2 z4 |] %17

